packages/kaspersky-hexa-ui-icons/src/iconsSVGs/64x42/FlagEu.svg

<svg xmlns="http://www.w3.org/2000/svg" width="64" height="42" fill="none" viewBox="0 0 64 42"><g clip-path="url(#a)"><rect width="64" height="42" fill="#fff" rx="5"/><path fill="#043cae" d="M0 0h64v42H0z"/><path fill="#ffd429" fill-rule="evenodd" d="m30.0199 8.98 1.9799-.5798 1.9799.5799L33.3998 7l.5799-1.9798-1.9799.5799-1.9799-.58.5799 1.98zm0 28.0004 1.9799-.5799 1.9799.5799-.5799-1.9799.5799-1.9799-1.9799.5799-1.9799-.5799.5799 1.9799zm15.9798-14.5801-1.9799.5799.5799-1.9799-.5799-1.9799 1.9799.5799 1.9799-.5799-.5799 1.9799.5799 1.9799zm-29.9797.5799 1.9799-.5799 1.9799.5799-.5799-1.9799.5799-1.9799-1.9799.5799-1.9799-.5799.5799 1.9799zm28.1043-7.5797-1.9799.5799.5799-1.9799-.5799-1.9799 1.9799.5799 1.9799-.5799-.5799 1.9799.5799 1.9799zM17.8957 29.9801l1.9799-.5799 1.9799.5799-.5799-1.9799.5799-1.9799-1.9799.5799-1.9799-.5799.5799 1.9799zm21.1042-19.704-1.9799.5799.5799-1.9799-.5799-1.9799 1.9799.58 1.9799-.58-.5799 1.98.5799 1.9798zM23.0198 35.1045l1.9799-.5799 1.9799.5799-.5799-1.9799.5799-1.9799-1.9799.5799-1.9799-.5799.5799 1.9799zm21.1045-5.7043-1.9799.5799.5799-1.9799-.5799-1.9799 1.9799.5799 1.9799-.5799-.5799 1.9799.5799 1.9799zM17.8957 15.9804l1.9799-.5799 1.9799.5799-.5799-1.9799.5799-1.9799-1.9799.5799-1.9799-.5799.5799 1.9799zm21.1042 18.5442-1.9799.5799.5799-1.9799-.5799-1.9799 1.9799.5799 1.9799-.5799-.5799 1.9799.5799 1.9799zM23.0198 10.856l1.9799-.5799 1.9799.5799-.5799-1.9799.5799-1.9799-1.9799.58-1.9799-.58.5799 1.98z" clip-rule="evenodd"/></g><defs><clipPath id="a"><rect width="64" height="42" fill="#fff" rx="5"/></clipPath></defs></svg>

<svg width="64" height="42" viewBox="0 0 64 42" fill="none" xmlns="http://www.w3.org/2000/svg">
<g clip-path="url(#clip0_37941_2384)">
<rect width="64" height="42" rx="5" fill="white"/>
<rect width="64" height="42" fill="#043CAE"/>
<path fill-rule="evenodd" clip-rule="evenodd" d="M30.0199 8.98006L31.9998 8.40016L33.9797 8.98006L33.3998 7.00016L33.9797 5.02026L31.9998 5.60016L30.0199 5.02026L30.5998 7.00016L30.0199 8.98006ZM30.0199 36.9804L31.9998 36.4005L33.9797 36.9804L33.3998 35.0005L33.9797 33.0206L31.9998 33.6005L30.0199 33.0206L30.5998 35.0005L30.0199 36.9804ZM45.9997 22.4003L44.0198 22.9802L44.5997 21.0003L44.0198 19.0204L45.9997 19.6003L47.9796 19.0204L47.3997 21.0003L47.9796 22.9802L45.9997 22.4003ZM16.02 22.9802L17.9999 22.4003L19.9798 22.9802L19.3999 21.0003L19.9798 19.0204L17.9999 19.6003L16.02 19.0204L16.5999 21.0003L16.02 22.9802ZM44.1243 15.4005L42.1444 15.9804L42.7243 14.0005L42.1444 12.0206L44.1243 12.6005L46.1042 12.0206L45.5243 14.0005L46.1042 15.9804L44.1243 15.4005ZM17.8957 29.9801L19.8756 29.4002L21.8555 29.9801L21.2756 28.0002L21.8555 26.0203L19.8756 26.6002L17.8957 26.0203L18.4756 28.0002L17.8957 29.9801ZM38.9999 10.2761L37.02 10.856L37.5999 8.87612L37.02 6.89622L38.9999 7.47611L40.9798 6.89622L40.3999 8.87612L40.9798 10.856L38.9999 10.2761ZM23.0198 35.1045L24.9997 34.5246L26.9796 35.1045L26.3997 33.1246L26.9796 31.1447L24.9997 31.7246L23.0198 31.1447L23.5997 33.1246L23.0198 35.1045ZM44.1243 29.4002L42.1444 29.9801L42.7243 28.0002L42.1444 26.0203L44.1243 26.6002L46.1042 26.0203L45.5243 28.0002L46.1042 29.9801L44.1243 29.4002ZM17.8957 15.9804L19.8756 15.4005L21.8555 15.9804L21.2756 14.0005L21.8555 12.0206L19.8756 12.6005L17.8957 12.0206L18.4756 14.0005L17.8957 15.9804ZM38.9999 34.5246L37.02 35.1045L37.5999 33.1246L37.02 31.1447L38.9999 31.7246L40.9798 31.1447L40.3999 33.1246L40.9798 35.1045L38.9999 34.5246ZM23.0198 10.856L24.9997 10.2761L26.9796 10.856L26.3997 8.87612L26.9796 6.89622L24.9997 7.47611L23.0198 6.89622L23.5997 8.87612L23.0198 10.856Z" fill="#FFD429"/>
</g>
<defs>
<clipPath id="clip0_37941_2384">
<rect width="64" height="42" rx="5" fill="white"/>
</clipPath>
</defs>
</svg>
